svg/servers-outline.svg

<?xml version="1.0" encoding="UTF-8"?>
<svg xmlns="http://www.w3.org/2000/svg" xmlns:xlink="http://www.w3.org/1999/xlink" width="32" height="32" viewBox="0 0 32 32">
<path fill-rule="nonzero" fill="rgb(0%, 0%, 0%)" fill-opacity="1" d="M 7.429688 3 C 6.671875 2.996094 5.976562 3.425781 5.640625 4.105469 L 3.265625 8.851562 C 3.09375 9.199219 3.003906 9.582031 3 9.96875 L 3 15 C 3 15.601562 3.273438 16.132812 3.691406 16.5 C 3.257812 16.878906 3.003906 17.421875 3 18 L 3 21 C 3 21.601562 3.273438 22.132812 3.691406 22.5 C 3.253906 22.875 3.003906 23.421875 3 24 L 3 27 C 3 28.101562 3.898438 29 5 29 L 27 29 C 28.101562 29 29 28.101562 29 27 L 29 24 C 29 23.398438 28.726562 22.867188 28.308594 22.5 C 28.726562 22.132812 29 21.601562 29 21 L 29 18 C 29 17.398438 28.726562 16.867188 28.308594 16.5 C 28.726562 16.132812 29 15.601562 29 15 L 29 9.96875 C 29 9.585938 28.90625 9.199219 28.734375 8.851562 L 26.359375 4.105469 C 26.027344 3.421875 25.328125 2.992188 24.570312 3 Z M 7.429688 4 L 24.570312 4 C 24.953125 4 25.296875 4.210938 25.46875 4.554688 L 27.84375 9.300781 C 27.945312 9.507812 28 9.734375 28 9.96875 L 28 10 L 4 10 L 4 9.96875 C 4 9.742188 4.054688 9.507812 4.15625 9.300781 L 6.53125 4.554688 C 6.699219 4.214844 7.050781 4 7.429688 4 M 7.5 5 C 7.222656 5 7 5.222656 7 5.5 C 7 5.777344 7.222656 6 7.5 6 L 20.5 6 C 20.777344 6 21 5.777344 21 5.5 C 21 5.222656 20.777344 5 20.5 5 Z M 22.5 5 C 22.222656 5 22 5.222656 22 5.5 C 22 5.777344 22.222656 6 22.5 6 L 24.5 6 C 24.777344 6 25 5.777344 25 5.5 C 25 5.222656 24.777344 5 24.5 5 Z M 4 11 L 28 11 L 28 15 C 28 15.550781 27.550781 16 27 16 L 5 16 C 4.449219 16 4 15.550781 4 15 Z M 24.5 12 C 23.671875 12 23 12.671875 23 13.5 C 23 14.328125 23.671875 15 24.5 15 C 25.328125 15 26 14.328125 26 13.5 C 26 12.671875 25.328125 12 24.5 12 M 6.5 12.5 C 6.222656 12.5 6 12.722656 6 13 L 6 14 C 6 14.277344 6.222656 14.5 6.5 14.5 C 6.777344 14.5 7 14.277344 7 14 L 7 13 C 7 12.722656 6.777344 12.5 6.5 12.5 M 9 12.5 C 8.722656 12.5 8.5 12.722656 8.5 13 L 8.5 14 C 8.5 14.277344 8.722656 14.5 9 14.5 C 9.277344 14.5 9.5 14.277344 9.5 14 L 9.5 13 C 9.5 12.722656 9.277344 12.5 9 12.5 M 11.5 12.5 C 11.222656 12.5 11 12.722656 11 13 L 11 14 C 11 14.277344 11.222656 14.5 11.5 14.5 C 11.777344 14.5 12 14.277344 12 14 L 12 13 C 12 12.722656 11.777344 12.5 11.5 12.5 M 14 12.5 C 13.722656 12.5 13.5 12.722656 13.5 13 L 13.5 14 C 13.5 14.277344 13.722656 14.5 14 14.5 C 14.277344 14.5 14.5 14.277344 14.5 14 L 14.5 13 C 14.5 12.722656 14.277344 12.5 14 12.5 M 16.5 12.5 C 16.222656 12.5 16 12.722656 16 13 L 16 14 C 16 14.277344 16.222656 14.5 16.5 14.5 C 16.777344 14.5 17 14.277344 17 14 L 17 13 C 17 12.722656 16.777344 12.5 16.5 12.5 M 24.5 12.898438 C 24.832031 12.898438 25.101562 13.167969 25.101562 13.5 C 25.101562 13.835938 24.832031 14.105469 24.496094 14.101562 C 24.164062 14.101562 23.894531 13.832031 23.898438 13.5 C 23.898438 13.167969 24.167969 12.898438 24.5 12.898438 M 18.5 13 C 18.222656 13 18 13.222656 18 13.5 C 18 13.777344 18.222656 14 18.5 14 L 21.5 14 C 21.777344 14 22 13.777344 22 13.5 C 22 13.222656 21.777344 13 21.5 13 Z M 5 17 L 27 17 C 27.550781 17 28 17.449219 28 18 L 28 21 C 28 21.550781 27.550781 22 27 22 L 5 22 C 4.449219 22 4 21.550781 4 21 L 4 18 C 4 17.449219 4.449219 17 5 17 M 24.5 18 C 23.671875 18 23 18.671875 23 19.5 C 23 20.328125 23.671875 21 24.5 21 C 25.328125 21 26 20.328125 26 19.5 C 26 18.671875 25.328125 18 24.5 18 M 6.5 18.5 C 6.222656 18.5 6 18.722656 6 19 L 6 20 C 6 20.277344 6.222656 20.5 6.5 20.5 C 6.777344 20.5 7 20.277344 7 20 L 7 19 C 7 18.722656 6.777344 18.5 6.5 18.5 M 9 18.5 C 8.722656 18.5 8.5 18.722656 8.5 19 L 8.5 20 C 8.5 20.277344 8.722656 20.5 9 20.5 C 9.277344 20.5 9.5 20.277344 9.5 20 L 9.5 19 C 9.5 18.722656 9.277344 18.5 9 18.5 M 11.5 18.5 C 11.222656 18.5 11 18.722656 11 19 L 11 20 C 11 20.277344 11.222656 20.5 11.5 20.5 C 11.777344 20.5 12 20.277344 12 20 L 12 19 C 12 18.722656 11.777344 18.5 11.5 18.5 M 14 18.5 C 13.722656 18.5 13.5 18.722656 13.5 19 L 13.5 20 C 13.5 20.277344 13.722656 20.5 14 20.5 C 14.277344 20.5 14.5 20.277344 14.5 20 L 14.5 19 C 14.5 18.722656 14.277344 18.5 14 18.5 M 16.5 18.5 C 16.222656 18.5 16 18.722656 16 19 L 16 20 C 16 20.277344 16.222656 20.5 16.5 20.5 C 16.777344 20.5 17 20.277344 17 20 L 17 19 C 17 18.722656 16.777344 18.5 16.5 18.5 M 24.5 18.898438 C 24.832031 18.898438 25.101562 19.167969 25.101562 19.5 C 25.101562 19.832031 24.832031 20.101562 24.5 20.101562 C 24.167969 20.101562 23.898438 19.832031 23.898438 19.5 C 23.898438 19.167969 24.167969 18.898438 24.5 18.898438 M 18.5 19 C 18.222656 19 18 19.222656 18 19.5 C 18 19.777344 18.222656 20 18.5 20 L 21.5 20 C 21.777344 20 22 19.777344 22 19.5 C 22 19.222656 21.777344 19 21.5 19 Z M 5 23 L 27 23 C 27.550781 23 28 23.449219 28 24 L 28 27 C 28 27.550781 27.550781 28 27 28 L 5 28 C 4.449219 28 4 27.550781 4 27 L 4 24 C 4 23.449219 4.449219 23 5 23 M 24.5 24 C 23.671875 24 23 24.671875 23 25.5 C 23 26.328125 23.671875 27 24.5 27 C 25.328125 27 26 26.328125 26 25.5 C 26 24.671875 25.328125 24 24.5 24 M 6.5 24.5 C 6.222656 24.5 6 24.722656 6 25 L 6 26 C 6 26.277344 6.222656 26.5 6.5 26.5 C 6.777344 26.5 7 26.277344 7 26 L 7 25 C 7 24.722656 6.777344 24.5 6.5 24.5 M 9 24.5 C 8.722656 24.5 8.5 24.722656 8.5 25 L 8.5 26 C 8.5 26.277344 8.722656 26.5 9 26.5 C 9.277344 26.5 9.5 26.277344 9.5 26 L 9.5 25 C 9.5 24.722656 9.277344 24.5 9 24.5 M 11.5 24.5 C 11.222656 24.5 11 24.722656 11 25 L 11 26 C 11 26.277344 11.222656 26.5 11.5 26.5 C 11.777344 26.5 12 26.277344 12 26 L 12 25 C 12 24.722656 11.777344 24.5 11.5 24.5 M 14 24.5 C 13.722656 24.5 13.5 24.722656 13.5 25 L 13.5 26 C 13.5 26.277344 13.722656 26.5 14 26.5 C 14.277344 26.5 14.5 26.277344 14.5 26 L 14.5 25 C 14.5 24.722656 14.277344 24.5 14 24.5 M 16.5 24.5 C 16.222656 24.5 16 24.722656 16 25 L 16 26 C 16 26.277344 16.222656 26.5 16.5 26.5 C 16.777344 26.5 17 26.277344 17 26 L 17 25 C 17 24.722656 16.777344 24.5 16.5 24.5 M 24.5 24.875 C 24.84375 24.875 25.125 25.15625 25.125 25.5 C 25.125 25.84375 24.84375 26.125 24.5 26.125 C 24.15625 26.125 23.875 25.84375 23.875 25.5 C 23.875 25.15625 24.15625 24.875 24.5 24.875 M 18.5 25 C 18.222656 25 18 25.222656 18 25.5 C 18 25.777344 18.222656 26 18.5 26 L 21.5 26 C 21.777344 26 22 25.777344 22 25.5 C 22 25.222656 21.777344 25 21.5 25 Z M 18.5 25 "/>
</svg>

<svg role="img" viewBox="0 0 32 32" height="32" width="32" xmlns="http://www.w3.org/2000/svg"><path d="M7.43 3a1.986 1.986 0 0 0-1.79 1.105L3.267 8.852c-.172.347-.262.73-.266 1.117V15c0 .602.273 1.133.691 1.5A2.002 2.002 0 0 0 3 18v3c0 .602.273 1.133.691 1.5A1.995 1.995 0 0 0 3 24v3c0 1.102.898 2 2 2h22c1.102 0 2-.898 2-2v-3c0-.602-.273-1.133-.691-1.5.418-.367.691-.898.691-1.5v-3c0-.602-.273-1.133-.691-1.5.418-.367.691-.898.691-1.5V9.969c0-.383-.094-.77-.266-1.117L26.36 4.105A1.968 1.968 0 0 0 24.57 3Zm0 1h17.14c.383 0 .727.21.899.555L27.844 9.3c.101.207.156.433.156.668V10H4v-.031c0-.227.055-.461.156-.668l2.375-4.746C6.7 4.215 7.051 4 7.43 4m.07 1a.499.499 0 1 0 0 1h13a.499.499 0 1 0 0-1Zm15 0a.499.499 0 1 0 0 1h2a.499.499 0 1 0 0-1ZM4 11h24v4c0 .55-.45 1-1 1H5c-.55 0-1-.45-1-1Zm20.5 1a1.5 1.5 0 1 0 0 3 1.5 1.5 0 0 0 0-3m-18 .5c-.277 0-.5.223-.5.5v1a.499.499 0 1 0 1 0v-1c0-.277-.223-.5-.5-.5m2.5 0c-.277 0-.5.223-.5.5v1a.499.499 0 1 0 1 0v-1c0-.277-.223-.5-.5-.5m2.5 0c-.277 0-.5.223-.5.5v1a.499.499 0 1 0 1 0v-1c0-.277-.223-.5-.5-.5m2.5 0c-.277 0-.5.223-.5.5v1a.499.499 0 1 0 1 0v-1c0-.277-.223-.5-.5-.5m2.5 0c-.277 0-.5.223-.5.5v1a.499.499 0 1 0 1 0v-1c0-.277-.223-.5-.5-.5m8 .398a.602.602 0 1 1-.002 1.205.602.602 0 0 1 .002-1.205m-6 .102a.499.499 0 1 0 0 1h3a.499.499 0 1 0 0-1ZM5 17h22c.55 0 1 .45 1 1v3c0 .55-.45 1-1 1H5c-.55 0-1-.45-1-1v-3c0-.55.45-1 1-1m19.5 1a1.5 1.5 0 1 0 0 3 1.5 1.5 0 0 0 0-3m-18 .5c-.277 0-.5.223-.5.5v1a.499.499 0 1 0 1 0v-1c0-.277-.223-.5-.5-.5m2.5 0c-.277 0-.5.223-.5.5v1a.499.499 0 1 0 1 0v-1c0-.277-.223-.5-.5-.5m2.5 0c-.277 0-.5.223-.5.5v1a.499.499 0 1 0 1 0v-1c0-.277-.223-.5-.5-.5m2.5 0c-.277 0-.5.223-.5.5v1a.499.499 0 1 0 1 0v-1c0-.277-.223-.5-.5-.5m2.5 0c-.277 0-.5.223-.5.5v1a.499.499 0 1 0 1 0v-1c0-.277-.223-.5-.5-.5m8 .398a.602.602 0 1 1 0 1.204.602.602 0 0 1 0-1.204m-6 .102a.499.499 0 1 0 0 1h3a.499.499 0 1 0 0-1ZM5 23h22c.55 0 1 .45 1 1v3c0 .55-.45 1-1 1H5c-.55 0-1-.45-1-1v-3c0-.55.45-1 1-1m19.5 1a1.5 1.5 0 1 0 0 3 1.5 1.5 0 0 0 0-3m-18 .5c-.277 0-.5.223-.5.5v1a.499.499 0 1 0 1 0v-1c0-.277-.223-.5-.5-.5m2.5 0c-.277 0-.5.223-.5.5v1a.499.499 0 1 0 1 0v-1c0-.277-.223-.5-.5-.5m2.5 0c-.277 0-.5.223-.5.5v1a.499.499 0 1 0 1 0v-1c0-.277-.223-.5-.5-.5m2.5 0c-.277 0-.5.223-.5.5v1a.499.499 0 1 0 1 0v-1c0-.277-.223-.5-.5-.5m2.5 0c-.277 0-.5.223-.5.5v1a.499.499 0 1 0 1 0v-1c0-.277-.223-.5-.5-.5m8 .375c.344 0 .625.281.625.625a.627.627 0 0 1-.625.625.627.627 0 0 1-.625-.625c0-.344.281-.625.625-.625m-6 .125a.499.499 0 1 0 0 1h3a.499.499 0 1 0 0-1Zm0 0"/></svg>
